X: 4320
T: BE MINE THE DELIGHT. (Faust.)
%R: air, jig
B: James Kerr "Merry Melodies" v.4 p.34 #320
Z: 2016 John Chambers <jc:trillian.mit.edu>
M: 6/8
L: 1/8
K: G
B |\
B3- BGE | D3- DGB | d3- dcB | (^G3 A2)d |\
e3- edB | G3- G2G | F3- FGF | B3- B2B |\
B3- BAG | e3 d3 | f2e d2c | A3- A2^A |\
B3- B^c^d | f3 e2e |
g3- gB^c | d3- d2d |\
d3- dBG | A3 G2e | e3- e^cA | B3 A2f |\
f3- f^dB | c3 B2g | g3- ge^c | d6- |\
d2d dcB | f3 e3 | z2A d3- | "_rit."ded  Bc z/F/ |\
G3- G2 |]

%%sep 1 1 500
%%sep 1 1 500

